src/components/Icon/assets/lab.svg

<svg width="24" height="24" viewBox="0 0 24 24" fill="none" xmlns="http://www.w3.org/2000/svg">
<path fill-rule="evenodd" clip-rule="evenodd" d="M9.00021 2.00009H15.0002C15.5522 2.00009 16.0002 2.44809 16.0002 3.00009V9.42609C16.0002 9.80109 16.1052 10.1681 16.3042 10.4861L20.3922 17.0271C20.7892 17.6631 21.0002 18.3971 21.0002 19.1471V21.0001C21.0002 21.5521 20.5522 22.0001 20.0002 22.0001H4.00021C3.44821 22.0001 3.00021 21.5521 3.00021 21.0001V19.1471C3.00021 18.3971 3.21021 17.6631 3.60821 17.0271L7.69621 10.4861C7.89521 10.1681 8.00021 9.80109 8.00021 9.42609V3.00009C8.00021 2.44809 8.44821 2.00009 9.00021 2.00009ZM14.0002 9.42609V4.00009H10.0002V9.42609C10.0002 10.1771 9.79021 10.9101 9.39221 11.5461L5.30421 18.0871C5.10521 18.4051 5.00021 18.7721 5.00021 19.1471V20.0001H19.0002V19.1471C19.0002 18.7721 18.8952 18.4051 18.6962 18.0871L14.6082 11.5461C14.2102 10.9101 14.0002 10.1771 14.0002 9.42609ZM13.7125 12L17.8805 18.669C17.9435 18.77 17.9825 18.883 17.9955 19H6.00452C6.01752 18.883 6.05652 18.77 6.11952 18.669L10.2875 12H13.7125Z" fill="#65676A"/>
</svg>

<svg xmlns="http://www.w3.org/2000/svg" width="24" height="24" viewBox="0 0 24 24">
    <path fill="#65676A" fill-rule="evenodd" d="M15 2c.552 0 1 .448 1 1v6.426c0 .375.105.742.304 1.06l4.088 6.541c.397.636.608 1.37.608 2.12V21c0 .552-.448 1-1 1H4c-.552 0-1-.448-1-1v-1.853c0-.75.21-1.484.608-2.12l4.088-6.54c.2-.319.304-.686.304-1.06V3c0-.552.448-1 1-1zm-1 2h-4v5.426c0 .751-.21 1.484-.608 2.12l-4.088 6.541c-.199.318-.304.685-.304 1.06V20h14v-.853c0-.375-.105-.742-.304-1.06l-4.088-6.54c-.398-.637-.608-1.37-.608-2.12V4zm-.287 8l4.168 6.669c.063.101.102.214.114.331H6.005c.013-.117.051-.23.115-.331L10.287 12h3.425z"/>
</svg>
